X: 125
T: Jesli domu sam Pan nie zbuduje,
C: Mikołaj Gomółka
%%abc-version 2.0
%%abcx-abcm2ps-target-version 5.9.1 (29 Sep 2008)
%%abc-creator hum2abc beta
%%abcx-conversion-date 2021/10/04 07:59:10
%%abc-edited-by Leszek Kubiak
%%abcx-initial-encoding-date data 2020-02-21
%%humdrum-veritas 1319785445
%%humdrum-veritas-data 3136056240
%%linebreak <none>
%%barnumbers 0
L: 1/4
M: C|
N: Derived from pl-wn--sd-xvi-qu-273--127_gomolka-mikolaj--jesli-domu-sam-pan-nie-zbuduje.krn
%%staves [1 2 3 4]
V: 1
V: 2 clef=alto
V: 3 clef=alto
V: 4 clef=bass
K: F
[V:1] z4z2A2 [|] 
[V:2] z4z2D2 [|] 
[V:3] z4z2A,2 [|] 
[V:4] z4z2D,2 [|] 
[V:1] A4G4 [|] 
[V:2] D2D4C2 [|] 
[V:3] ^F,4G,4 [|] 
[V:4] D,4_E,4 [|] 
[V:1] F2A2B2AG [|] 
[V:2] D2FED2_E2 [|] 
[V:3] A,2DCB,2CB, [|] 
[V:4] D,2D,2G,2C,2 [|] 
[V:1] FG2FG4 :|]  
[V:2] D2>C2B,4 :|]  
[V:3] A,G,A,2G,4 :|]  
[V:4] D,2D,2G,,4 :|]  
[V:1] z2=B2=B4 [|] 
[V:2] z2G2G4 [|] 
[V:3] z2D2D4 [|] 
[V:4] z2G,2G,4 [|] 
[V:1] c2>B2A2d4 [|] 
[V:2] G4D3E [|] 
[V:3] E4F3E [|] 
[V:4] C,4D,2D,2 [|] 
[V:1] d2c2B4 [|] 
[V:2] F4F2GE [|] 
[V:3] DCB,2CDED [|] 
[V:4] B,4A,2G,2 [|] 
[V:1] A2B2d4 [|] 
[V:2] FEED/C/D2F4 [|] 
[V:3] DC/B,/C2B,2B,4 [|] 
[V:4] F,4B,,2B,,4 [|] 
[V:1] c2B2B2 [|] 
[V:2] F2DCDE [|] 
[V:3] A,2B,2B,2 [|] 
[V:4] F,2G,2G,2 [|] 
[V:1] A2A2G2G4 [|] 
[V:2] F2F2D2E2 [|] 
[V:3] C2D2B,2CB, [|] 
[V:4] F,2D,2G,2C,2 [|] 
[V:1] F2G32 [|] 
[V:2] D2>C2B,32 [|] 
[V:3] A,G,A,2G,32 [|] 
[V:4] D,4G,,32 [|] 


